X: 21043
T: Jump Like A Rabbit
R: jig
M: 6/8
K: Edorian
|:"Em" e2 B e2 B|efg "D" fed|"Em" e2 B e2 B|"A" c2 A "Bm" Bcd|
"Em" e2 B e2 B|efg "D" fed|"Em" e2 B "A" c2 A|"Bm" Bcd "Em" e3:|
|:"A" c2 A e2 c|a2 e c2 A|"G" BGB dBd|g2 d B2 G|
"A" c2 A e2 c|a2 e c2 e|"D" fga gfe|"G" dcB "A" A3:|

